assets/svgs/molecule-headphones.svg

<svg width="80" height="80" viewBox="0 0 81 80" fill="none" xmlns="http://www.w3.org/2000/svg">
  <path d="M40.5 0L68.7843 11.7157L80.5 40L68.7843 68.2843L40.5 80L12.2158 68.2843L0.5 40L12.2158 11.7157L40.5 0Z" fill="#0B6AB7" class="svg__fill--primary-blue-03"/>
  <rect x="24.5566" y="40.845" width="5.15" height="16.5937" rx="0.655858" stroke="white" stroke-width="1.25" class="svg__stroke--white"/>
  <rect x="-0.625" y="0.625" width="5.14976" height="16.5937" rx="0.655858" transform="matrix(-1 0 0 1 55.8071 40.22)" stroke="white" stroke-width="1.25"/>
  <path d="M59.8139 51.4874V41.3195C59.8139 30.6497 51.1642 22 40.4944 22V22C29.8245 22 21.1748 30.6497 21.1748 41.3195V51.4874" stroke="white" stroke-width="1.25" class="svg__stroke--white"/>
  <mask id="path-5-inside-1_360_5669" fill="white" class="svg__fill--white">
    <path d="M20.625 44.933C20.625 43.7276 21.6022 42.7504 22.8076 42.7504V42.7504C24.013 42.7504 24.9902 43.7276 24.9902 44.933V54.7728C24.9902 54.7728 22.6937 54.9747 21.7163 54.3298C20.9205 53.8048 20.6593 52.4943 20.6282 52.3235C20.626 52.311 20.625 52.2986 20.625 52.2859V44.933Z"/>
  </mask>
  <path d="M24.9902 54.7728L25.0997 56.018L26.2402 55.9177V54.7728H24.9902ZM21.7163 54.3298L21.0279 55.3732L21.7163 54.3298ZM23.7402 44.933V54.7728H26.2402V44.933H23.7402ZM21.875 52.2859V44.933H19.375V52.2859H21.875ZM24.9902 54.7728C24.8807 53.5276 24.8808 53.5276 24.881 53.5275C24.8811 53.5275 24.8812 53.5275 24.8813 53.5275C24.8815 53.5275 24.8817 53.5275 24.8818 53.5275C24.882 53.5275 24.8821 53.5274 24.8821 53.5275C24.882 53.5275 24.8815 53.5275 24.8803 53.5276C24.8781 53.5278 24.8738 53.5281 24.8676 53.5286C24.855 53.5296 24.8347 53.5311 24.8074 53.5329C24.7527 53.5365 24.6707 53.5412 24.5681 53.5452C24.3614 53.5531 24.0791 53.5575 23.7738 53.5443C23.4647 53.5309 23.1561 53.5005 22.8893 53.4462C22.6059 53.3885 22.4572 53.3211 22.4047 53.2865L21.0279 55.3732C21.4641 55.661 21.969 55.8102 22.391 55.896C22.8297 55.9853 23.2785 56.0252 23.6657 56.042C24.0567 56.0589 24.4097 56.0531 24.664 56.0433C24.792 56.0384 24.897 56.0324 24.9717 56.0275C25.0092 56.025 25.0391 56.0228 25.0607 56.0211C25.0715 56.0203 25.0802 56.0196 25.0867 56.0191C25.09 56.0188 25.0927 56.0186 25.0949 56.0184C25.096 56.0183 25.0969 56.0182 25.0977 56.0181C25.0981 56.0181 25.0985 56.0181 25.0988 56.018C25.099 56.018 25.0992 56.018 25.0993 56.018C25.0995 56.018 25.0997 56.018 24.9902 54.7728ZM22.4047 53.2865C22.3245 53.2336 22.1806 53.0603 22.0434 52.7228C21.92 52.4196 21.8658 52.1424 21.8581 52.1L19.3984 52.547C19.4217 52.6754 19.5137 53.1389 19.7276 53.6649C19.9277 54.1566 20.3123 54.9011 21.0279 55.3732L22.4047 53.2865ZM19.375 52.2859C19.375 52.3634 19.381 52.4513 19.3984 52.547L21.8581 52.1C21.8709 52.1706 21.875 52.2339 21.875 52.2859H19.375ZM22.8076 44.0004C23.3226 44.0004 23.7402 44.418 23.7402 44.933H26.2402C26.2402 43.0372 24.7033 41.5004 22.8076 41.5004V44.0004ZM22.8076 41.5004C20.9118 41.5004 19.375 43.0372 19.375 44.933H21.875C21.875 44.418 22.2925 44.0004 22.8076 44.0004V41.5004Z" fill="white" mask="url(#path-5-inside-1_360_5669)" class="svg__fill--white"/>
  <mask id="path-7-inside-2_360_5669" fill="white" class="svg__fill--white">
    <path d="M60.375 44.933C60.375 43.7276 59.3978 42.7504 58.1924 42.7504V42.7504C56.987 42.7504 56.0098 43.7276 56.0098 44.933V54.7728C56.0098 54.7728 58.3063 54.9747 59.2837 54.3298C60.0795 53.8048 60.3407 52.4943 60.3718 52.3235C60.374 52.311 60.375 52.2986 60.375 52.2859V44.933Z"/>
  </mask>
  <path d="M56.0098 54.7728L55.9003 56.018L54.7598 55.9177V54.7728H56.0098ZM59.2837 54.3298L58.5953 53.2865L58.5953 53.2865L59.2837 54.3298ZM60.3718 52.3235L61.6016 52.547L60.3718 52.3235ZM57.2598 44.933V54.7728H54.7598V44.933H57.2598ZM59.125 52.2859V44.933H61.625V52.2859H59.125ZM56.0098 54.7728C56.1193 53.5276 56.1192 53.5276 56.119 53.5275C56.1189 53.5275 56.1188 53.5275 56.1187 53.5275C56.1185 53.5275 56.1183 53.5275 56.1182 53.5275C56.118 53.5275 56.1179 53.5274 56.1179 53.5275C56.118 53.5275 56.1185 53.5275 56.1197 53.5276C56.1219 53.5278 56.1262 53.5281 56.1324 53.5286C56.145 53.5296 56.1653 53.5311 56.1926 53.5329C56.2473 53.5365 56.3293 53.5412 56.4319 53.5452C56.6386 53.5531 56.9209 53.5575 57.2262 53.5443C57.5353 53.5309 57.8439 53.5005 58.1107 53.4462C58.3941 53.3885 58.5428 53.3211 58.5953 53.2865L59.9721 55.3732C59.5359 55.661 59.031 55.8102 58.609 55.896C58.1703 55.9853 57.7215 56.0252 57.3343 56.042C56.9433 56.0589 56.5904 56.0531 56.336 56.0433C56.208 56.0384 56.103 56.0324 56.0283 56.0275C55.9908 56.025 55.9609 56.0228 55.9393 56.0211C55.9285 56.0203 55.9198 56.0196 55.9133 56.0191C55.91 56.0188 55.9073 56.0186 55.9051 56.0184C55.904 56.0183 55.9031 56.0182 55.9023 56.0181C55.9019 56.0181 55.9015 56.0181 55.9012 56.018C55.901 56.018 55.9008 56.018 55.9007 56.018C55.9005 56.018 55.9003 56.018 56.0098 54.7728ZM58.5953 53.2865C58.6755 53.2336 58.8194 53.0603 58.9566 52.7228C59.08 52.4196 59.1342 52.1424 59.1419 52.1L61.6016 52.547C61.5783 52.6754 61.4863 53.1389 61.2724 53.6649C61.0723 54.1566 60.6877 54.9011 59.9721 55.3732L58.5953 53.2865ZM61.625 52.2859C61.625 52.3634 61.619 52.4513 61.6016 52.547L59.1419 52.1C59.1291 52.1706 59.125 52.2339 59.125 52.2859H61.625ZM58.1924 44.0004C57.6774 44.0004 57.2598 44.418 57.2598 44.933H54.7598C54.7598 43.0372 56.2967 41.5004 58.1924 41.5004V44.0004ZM58.1924 41.5004C60.0882 41.5004 61.625 43.0372 61.625 44.933H59.125C59.125 44.418 58.7075 44.0004 58.1924 44.0004V41.5004Z" fill="white" mask="url(#path-7-inside-2_360_5669)" class="svg__fill--white"/>
</svg>

<svg viewBox="0 0 81 80" fill="none" xmlns="http://www.w3.org/2000/svg">
  <path d="m40.5 0 28.284 11.716L80.5 40 68.784 68.284 40.5 80 12.216 68.284.5 40l11.716-28.284L40.5 0Z" fill="#0B6AB7"/>
  <rect x="24.557" y="40.845" width="5.15" height="16.594" rx=".656" stroke="#fff" stroke-width="1.25"/>
  <rect x="-.625" y=".625" width="5.15" height="16.594" rx=".656" transform="matrix(-1 0 0 1 55.807 40.22)" stroke="#fff" stroke-width="1.25"/>
  <path d="M59.814 51.487V41.32c0-10.67-8.65-19.319-19.32-19.319s-19.32 8.65-19.32 19.32v10.167" stroke="#fff" stroke-width="1.25"/>
  <mask id="a" fill="#fff">
    <path d="M20.625 44.933a2.183 2.183 0 1 1 4.365 0v9.84s-2.296.202-3.274-.443c-.796-.525-1.057-1.836-1.088-2.006a.215.215 0 0 1-.003-.038v-7.353Z"/>
  </mask>
  <path d="m24.99 54.773.11 1.245 1.14-.1v-1.145h-1.25Zm-3.274-.443-.688 1.043.688-1.043Zm2.024-9.397v9.84h2.5v-9.84h-2.5Zm-1.865 7.353v-7.353h-2.5v7.353h2.5Zm3.115 2.487-.109-1.245h.001-.014a9.937 9.937 0 0 1-1.094.016 5.828 5.828 0 0 1-.885-.098c-.283-.057-.432-.125-.484-.16l-1.377 2.087c.436.288.941.437 1.363.523.439.09.888.13 1.275.146a12.398 12.398 0 0 0 1.395-.02l.026-.003h.011v-.001h.001l-.109-1.245Zm-2.585-1.487c-.08-.052-.224-.226-.362-.563a3.45 3.45 0 0 1-.185-.623l-2.46.447c.024.128.116.592.33 1.118.2.492.584 1.236 1.3 1.708l1.377-2.087Zm-3.03-1c0 .077.006.165.023.261l2.46-.447c.013.07.017.134.017.186h-2.5ZM22.808 44c.515 0 .932.418.932.933h2.5a3.433 3.433 0 0 0-3.432-3.433V44Zm0-2.5a3.433 3.433 0 0 0-3.433 3.433h2.5c0-.515.418-.933.933-.933v-2.5Z" fill="#fff" mask="url(#a)"/>
  <mask id="b" fill="#fff">
    <path d="M60.375 44.933a2.183 2.183 0 0 0-4.365 0v9.84s2.296.202 3.274-.443c.796-.525 1.057-1.836 1.088-2.006a.215.215 0 0 0 .003-.038v-7.353Z"/>
  </mask>
  <path d="m56.01 54.773-.11 1.245-1.14-.1v-1.145h1.25Zm3.274-.443-.689-1.044.689 1.044Zm1.088-2.006 1.23.223-1.23-.223Zm-3.112-7.391v9.84h-2.5v-9.84h2.5Zm1.865 7.353v-7.353h2.5v7.353h-2.5Zm-3.115 2.487.109-1.245h-.001.014l.06.005c.055.003.137.008.24.012.207.008.489.012.794 0 .31-.014.618-.044.885-.099.283-.057.432-.125.484-.16l1.377 2.087c-.436.288-.941.437-1.363.523-.439.09-.888.13-1.275.146a12.399 12.399 0 0 1-1.395-.02l-.026-.003h-.011v-.001H55.9l.109-1.245Zm2.585-1.487c.08-.052.224-.226.362-.563a3.45 3.45 0 0 0 .185-.623l2.46.447a5.931 5.931 0 0 1-.33 1.118c-.2.492-.584 1.236-1.3 1.708l-1.377-2.087Zm3.03-1c0 .077-.006.165-.023.261l-2.46-.447c-.013.07-.017.134-.017.186h2.5ZM58.192 44a.933.933 0 0 0-.932.933h-2.5a3.433 3.433 0 0 1 3.432-3.433V44Zm0-2.5a3.433 3.433 0 0 1 3.433 3.433h-2.5a.933.933 0 0 0-.933-.933v-2.5Z" fill="#fff" mask="url(#b)"/>
</svg>
